public/nodes/resistor.svg

<?xml version="1.0" encoding="iso-8859-1"?>
<svg version="1.1" id="Capa_1" xmlns="http://www.w3.org/2000/svg" xmlns:xlink="http://www.w3.org/1999/xlink" 
	 viewBox="0 0 462.782 462.782">
<g id="XMLID_21_">
	<path id="XMLID_904_" d="M350.272,323.014c-5.974,0-11.411-3.556-13.783-9.091l-50.422-117.65l-40.505,116.662
		c-2.08,5.989-7.699,10.023-14.038,10.08c-0.044,0-0.089,0-0.133,0c-6.286,0-11.911-3.921-14.081-9.831l-41.979-114.358
		l-40.798,114.234c-2.095,5.867-7.599,9.828-13.827,9.952c-6.242,0.127-11.886-3.615-14.213-9.394l-31.482-78.172H0v-30h85.141
		c6.121,0,11.627,3.719,13.914,9.396l20.511,50.93l41.446-116.048c2.124-5.947,7.745-9.927,14.06-9.955c0.022,0,0.044,0,0.066,0
		c6.289,0,11.912,3.923,14.081,9.831l41.779,113.814l39.431-113.565c2.032-5.851,7.451-9.852,13.64-10.071
		c6.203-0.217,11.877,3.389,14.317,9.082l49.683,115.927l15.254-48.815c1.957-6.262,7.756-10.526,14.317-10.526h85.141v30h-74.113
		l-24.076,77.043c-1.873,5.994-7.281,10.186-13.553,10.506C350.784,323.007,350.527,323.014,350.272,323.014z"/>
</g>
</svg>

<?xml version="1.0" encoding="utf-8"?>
<svg viewBox="0 139.77 462.78 183.25" xmlns="http://www.w3.org/2000/svg">
  <g id="XMLID_21_" transform="matrix(0.9999999999999999, 0, 0.005729000549763441, 1, -1.3401349594140441, 0.08491700768045263)" style="">
    <path id="XMLID_904_" d="M 350.272 323.014 C 344.298 323.014 338.861 319.458 336.489 313.923 L 286.067 196.273 L 245.562 312.935 C 243.482 318.924 237.863 322.958 231.524 323.015 C 231.48 323.015 231.435 323.015 231.391 323.015 C 225.105 323.015 219.48 319.094 217.31 313.184 L 175.331 198.826 L 134.533 313.06 C 132.438 318.927 126.934 322.888 120.706 323.012 C 114.464 323.139 108.82 319.397 106.493 313.618 L 75.011 235.446 L -0.074 248.247 L -0.074 218.247 L 85.141 205.446 C 91.262 205.446 96.768 209.165 99.055 214.842 L 119.566 265.772 L 161.012 149.724 C 163.136 143.777 168.757 139.797 175.072 139.769 C 175.094 139.769 175.116 139.769 175.138 139.769 C 181.427 139.769 187.05 143.692 189.219 149.6 L 230.998 263.414 L 270.429 149.849 C 272.461 143.998 277.88 139.997 284.069 139.778 C 290.272 139.561 295.946 143.167 298.386 148.86 L 348.069 264.787 L 363.323 215.972 C 365.28 209.71 371.079 205.446 377.64 205.446 L 462.707 218.247 L 462.707 248.247 L 388.668 235.446 L 364.592 312.489 C 362.719 318.483 357.311 322.675 351.039 322.995 C 350.784 323.007 350.527 323.014 350.272 323.014 Z"/>
  </g>
</svg>
